X:50
T:Minuet in G
C:J. S. Bach
N:
L:1/8
Q:1/4=107
M:3/4
K:G
z6 |: GB dg Af | g2 G2 G2 | GB dg Af | g2 G2 G2 | e2 e2 eg | d2 d2 dg | c2 dc Bc | 
A6 | GB dg Af | g2 G2 G2 | GB dg Af | g2 G2 G2 | e2 dc BA | d2 cB AG | (3ABc D2 F2 | 
G6 :|: GA BA GF | G2 E2 E2 | gf eg fe | f2 B2 B2 | gf eg fe | f2 B2 e2 | (3fga B2 ^d2 | 
e2 ^de f2 | g2 gf ed | e2 ed cB | c2 cB AG | F2 EF D2 | A2 D2 D2 | B2 D2 D2 | 
c2 dc Bc | A6 | GB dg Af | g2 G2 G2 | GB dg Af | g2 G2 G2 | e2 dc BA | d2 cB AG | 
AB D2 F2 | G6 :| 
 

